public/img/Logo-1.svg

<svg height="62" viewBox="0 0 343 62" width="343" xmlns="http://www.w3.org/2000/svg"><g fill="none" fill-rule="evenodd"><path d="m90.872 24.4h3.5c1.344 0 2.548 1.092 2.548 2.464v5.068c0 1.904-.924 3.276-2.856 3.276h-1.204v8.792h-1.428c-.476 0-.56-.28-.56-.42zm4.116 7.98v-5.152c-.056-.532-.504-.952-1.064-.952h-1.064v7.056h1.064c.56 0 1.008-.42 1.064-.952zm14.98 9.632h4.2c-.224.504-.56 1.288-.644 1.456-.14.252-.448.532-1.092.532h-4.48v-19.04c.028-.308.28-.56.616-.56h5.236l-.672 1.456c-.112.252-.42.56-1.064.56h-1.624c-.28 0-.476.196-.476.476v5.824h3.024c-.224.504-.56 1.316-.644 1.484-.14.252-.42.532-1.064.532h-.84c-.252 0-.476.224-.476.476zm20.468 1.988h-2.212l-1.764-13.496-1.764 13.496h-2.212l2.968-19.6h1.092c.84 0 .98.532 1.064 1.064zm15.288 0h-2.016v-7.168c0-.952-.504-1.26-1.036-1.26h-1.064v8.428h-2.016v-19.6h3.668c1.344 0 2.464 1.092 2.464 2.464v6.048s.084 1.54-.728 1.736c.784.392.728 1.848.728 1.848zm-4.116-10.332h1.064c.532 0 1.036-.224 1.036-1.12v-5.264c0-.728-.504-1.008-1.036-1.008h-1.064zm17.416 8.344h4.536c-.224.504-.56 1.288-.644 1.456-.14.252-.448.532-1.092.532h-4.816v-19.6h1.4c.336.028.616.28.616.616zm18.424-13.356c-.168.084-.952.448-1.484.672v-2.268c0-.616-.476-1.092-1.064-1.092s-1.064.476-1.064 1.092v1.876c0 1.148.868 2.632.868 2.632l2.408 4.536c.98 1.792.896 3.108.896 3.108v2.492c0 1.372-1.12 2.492-2.52 2.492h-1.26c-1.344-.056-2.408-1.148-2.436-2.492v-2.016c0-.644.308-.952.56-1.092.168-.056.98-.42 1.484-.644v3.416c0 .588.476 1.064 1.064 1.064s1.064-.476 1.064-1.092v-2.24c0-1.148-.868-2.66-.868-2.66l-2.408-4.508c-.98-1.792-.896-3.108-.896-3.108v-2.016c0-1.372 1.12-2.604 2.52-2.604h1.26c1.344.028 2.436 1.26 2.436 2.604v.756c0 .644-.308.952-.56 1.092zm32.956 5.544c1.176.364 1.148 1.596 1.148 1.596v5.74c-.028 1.372-1.12 2.464-2.492 2.464h-3.64v-19.6h3.64c1.372 0 2.464 1.092 2.492 2.464v5.74s.028 1.232-1.148 1.596zm-.868-2.072v-4.704c0-.728-.504-1.008-1.036-1.008h-1.092v6.86h1.092c.532 0 1.036-.252 1.036-1.148zm0 8.848v-4.732c0-.868-.504-1.12-1.036-1.12h-1.092v6.888h1.092c.532 0 1.036-.28 1.036-1.036zm15.512 1.036h4.2c-.224.504-.56 1.288-.644 1.456-.14.252-.448.532-1.092.532h-4.48v-19.04c.028-.308.28-.56.616-.56h5.236l-.672 1.456c-.112.252-.42.56-1.064.56h-1.624c-.28 0-.476.196-.476.476v5.824h3.024c-.224.504-.56 1.316-.644 1.484-.14.252-.42.532-1.064.532h-.84c-.252 0-.476.224-.476.476zm20.468 1.988h-2.212l-1.764-13.496-1.764 13.496h-2.212l2.968-19.6h1.092c.84 0 .98.532 1.064 1.064zm15.288 0h-2.016v-7.168c0-.952-.504-1.26-1.036-1.26h-1.064v8.428h-2.016v-19.6h3.668c1.344 0 2.464 1.092 2.464 2.464v6.048s.084 1.54-.728 1.736c.784.392.728 1.848.728 1.848zm-4.116-10.332h1.064c.532 0 1.036-.224 1.036-1.12v-5.264c0-.728-.504-1.008-1.036-1.008h-1.064zm14.7-9.268h3.892c1.372 0 2.464 1.092 2.492 2.464v14.672c-.028 1.372-1.12 2.464-2.492 2.464h-3.892zm4.396 16.576v-13.552c0-.728-.504-1.008-1.064-1.008h-1.316v15.596h1.316c.56 0 1.064-.28 1.064-1.036zm31.668-16.772h1.54c1.344.056 2.436 1.148 2.436 2.492v15.036c-.028 1.344-1.092 2.408-2.436 2.464h-1.54c-1.372 0-2.492-1.12-2.52-2.464v-15.036c0-1.372 1.12-2.492 2.52-2.492zm.56 18.228h.308c.588 0 1.064-.476 1.064-1.092v-14.28c0-.616-.476-1.092-1.064-1.092h-.308c-.588.028-1.064.504-1.064 1.092v14.28c0 .588.476 1.064 1.064 1.092zm14.56-18.032h1.204c.588 0 .812.448.812.784v18.816h-1.428c-.476 0-.56-.28-.588-.42zm15.932 17.612h4.536c-.224.504-.56 1.288-.644 1.456-.14.252-.448.532-1.092.532h-4.816v-19.6h1.4c.336.028.616.28.616.616z" fill="#f5a623"/><path d="m52.7614779 13.110581c-2.6389894-8.03457845-.5280367-13.110581-.5280367-13.110581h-.211334s-2.0052857 4.07832598-3.1661306 10.7997969c-1.1608449 6.7214709-4.1956378 7.7194445-4.1956378 7.7194445s1.79425 1.4966633 3.3249295 1.4966633 1.8912608-1.8465481 1.8912608-1.8465481c1.050999 2.4898847-1.4957556 3.0280776-1.4957556 3.0280776-3.2455301 0-8.4966443-4.0432781-8.4966443-4.0432781-6.174656-4.2012906-8.4790331-3.6758694-8.4790331-3.6758694-2.0760289 0-3.9049043 1.8117973-3.9049043 1.8117973s-1.829174-1.8117973-3.9049043-1.8117973c0 0-2.3049741-.5251242-8.4793316 3.6758694 0 0-5.25111424 4.0432781-8.4966443 4.0432781 0 0-2.54645609-.5381929-1.49545716-3.0280776 0 0 .36058129 1.8465481 1.89126079 1.8465481 1.530381 0 3.32463107-1.4966633 3.32463107-1.4966633s-3.03449448-.9976766-4.19563785-7.7194445c-1.16114338-6.72147092-3.16642904-10.7997969-3.16642904-10.7997969h-.21133407s2.11095269 5.07600255-.52773817 13.110581c-2.63869087 8.0342813-2.42705831 11.2557163-1.93484097 14.6862505 0 0-.03164041-3.1507452 1.47933845-4.2710893 0 0-3.75058266 14.843669 1.78260881 21.1448623 0 0-.73101289-3.780716 0-5.6712225 0 0-.58833255 9.2422453 12.71078884 16.1042047 0 0-2.0055842-4.2363385-1.8470836-6.9668061 0 0 1.9172298 6.4770268 5.1541035 8.2270448 3.2368737 1.7500179 6.579116 3.6054766 7.9163711 5.6361746 1.3369566-2.030698 4.6789004-3.8858596 7.9157741-5.6361746 3.2374707-1.750315 5.154402-8.2270448 5.154402-8.2270448.1585006 2.7304676-1.8470836 6.9668061-1.8470836 6.9668061 13.2988229-6.8619594 12.7104903-16.1042047 12.7104903-16.1042047.7310129 1.8905065 0 5.6712225 0 5.6712225 5.53349-6.3011933 1.7829073-21.1448623 1.7829073-21.1448623 1.5112774 1.1203441 1.479637 4.2710893 1.479637 4.2710893.4925158-3.4305342.7041484-6.6519692-1.9345425-14.6862505zm-34.2149254 9.5570821s5.0308253-.3151339 8.9539378-2.625621c0 0 3.2897072 2.2053434 8.9891601 2.625621 0 0-9.9741918 3.3084607-17.9430979 0z" fill="#4a4a4a" fill-rule="nonzero"/></g></svg>

<?xml version="1.0" encoding="UTF-8"?>
<svg width="343px" height="62px" viewBox="0 0 343 62" version="1.1" xmlns="http://www.w3.org/2000/svg" xmlns:xlink="http://www.w3.org/1999/xlink">
    <!-- Generator: Sketch 49.3 (51167) - http://www.bohemiancoding.com/sketch -->
    <title>Group</title>
    <desc>Created with Sketch.</desc>
    <defs></defs>
    <g id="Symbols" stroke="none" stroke-width="1" fill="none" fill-rule="evenodd">
        <g id="Nav">
            <g id="Logo">
                <g>
                    <g id="Group">
                        <path d="M90.872,24.4 L94.372,24.4 C95.716,24.4 96.92,25.492 96.92,26.864 L96.92,31.932 C96.92,33.836 95.996,35.208 94.064,35.208 L92.86,35.208 L92.86,44 L91.432,44 C90.956,44 90.872,43.72 90.872,43.58 L90.872,24.4 Z M94.988,32.38 L94.988,27.228 C94.932,26.696 94.484,26.276 93.924,26.276 L92.86,26.276 L92.86,33.332 L93.924,33.332 C94.484,33.332 94.932,32.912 94.988,32.38 Z M109.968,42.012 L114.168,42.012 C113.944,42.516 113.608,43.3 113.524,43.468 C113.384,43.72 113.076,44 112.432,44 L107.952,44 L107.952,24.96 C107.98,24.652 108.232,24.4 108.568,24.4 L113.804,24.4 L113.132,25.856 C113.02,26.108 112.712,26.416 112.068,26.416 L110.444,26.416 C110.164,26.416 109.968,26.612 109.968,26.892 L109.968,32.716 L112.992,32.716 C112.768,33.22 112.432,34.032 112.348,34.2 C112.208,34.452 111.928,34.732 111.284,34.732 L110.444,34.732 C110.192,34.732 109.968,34.956 109.968,35.208 L109.968,42.012 Z M130.436,44 L128.224,44 L126.46,30.504 L124.696,44 L122.484,44 L125.452,24.4 L126.544,24.4 C127.384,24.4 127.524,24.932 127.608,25.464 L130.436,44 Z M145.724,44 L143.708,44 L143.708,36.832 C143.708,35.88 143.204,35.572 142.672,35.572 L141.608,35.572 L141.608,44 L139.592,44 L139.592,24.4 L143.26,24.4 C144.604,24.4 145.724,25.492 145.724,26.864 L145.724,32.912 C145.724,32.912 145.808,34.452 144.996,34.648 C145.78,35.04 145.724,36.496 145.724,36.496 L145.724,44 Z M141.608,33.668 L142.672,33.668 C143.204,33.668 143.708,33.444 143.708,32.548 L143.708,27.284 C143.708,26.556 143.204,26.276 142.672,26.276 L141.608,26.276 L141.608,33.668 Z M159.024,42.012 L163.56,42.012 C163.336,42.516 163,43.3 162.916,43.468 C162.776,43.72 162.468,44 161.824,44 L157.008,44 L157.008,24.4 L158.408,24.4 C158.744,24.428 159.024,24.68 159.024,25.016 L159.024,42.012 Z M177.448,28.656 C177.28,28.74 176.496,29.104 175.964,29.328 L175.964,27.06 C175.964,26.444 175.488,25.968 174.9,25.968 C174.312,25.968 173.836,26.444 173.836,27.06 L173.836,28.936 C173.836,30.084 174.704,31.568 174.704,31.568 L177.112,36.104 C178.092,37.896 178.008,39.212 178.008,39.212 L178.008,41.704 C178.008,43.076 176.888,44.196 175.488,44.196 L174.228,44.196 C172.884,44.14 171.82,43.048 171.792,41.704 L171.792,39.688 C171.792,39.044 172.1,38.736 172.352,38.596 C172.52,38.54 173.332,38.176 173.836,37.952 L173.836,41.368 C173.836,41.956 174.312,42.432 174.9,42.432 C175.488,42.432 175.964,41.956 175.964,41.34 L175.964,39.1 C175.964,37.952 175.096,36.44 175.096,36.44 L172.688,31.932 C171.708,30.14 171.792,28.824 171.792,28.824 L171.792,26.808 C171.792,25.436 172.912,24.204 174.312,24.204 L175.572,24.204 C176.916,24.232 178.008,25.464 178.008,26.808 L178.008,27.564 C178.008,28.208 177.7,28.516 177.448,28.656 Z M210.404,34.2 C211.58,34.564 211.552,35.796 211.552,35.796 L211.552,41.536 C211.524,42.908 210.432,44 209.06,44 L205.42,44 L205.42,24.4 L209.06,24.4 C210.432,24.4 211.524,25.492 211.552,26.864 L211.552,32.604 C211.552,32.604 211.58,33.836 210.404,34.2 Z M209.536,32.128 L209.536,27.424 C209.536,26.696 209.032,26.416 208.5,26.416 L207.408,26.416 L207.408,33.276 L208.5,33.276 C209.032,33.276 209.536,33.024 209.536,32.128 Z M209.536,40.976 L209.536,36.244 C209.536,35.376 209.032,35.124 208.5,35.124 L207.408,35.124 L207.408,42.012 L208.5,42.012 C209.032,42.012 209.536,41.732 209.536,40.976 Z M225.048,42.012 L229.248,42.012 C229.024,42.516 228.688,43.3 228.604,43.468 C228.464,43.72 228.156,44 227.512,44 L223.032,44 L223.032,24.96 C223.06,24.652 223.312,24.4 223.648,24.4 L228.884,24.4 L228.212,25.856 C228.1,26.108 227.792,26.416 227.148,26.416 L225.524,26.416 C225.244,26.416 225.048,26.612 225.048,26.892 L225.048,32.716 L228.072,32.716 C227.848,33.22 227.512,34.032 227.428,34.2 C227.288,34.452 227.008,34.732 226.364,34.732 L225.524,34.732 C225.272,34.732 225.048,34.956 225.048,35.208 L225.048,42.012 Z M245.516,44 L243.304,44 L241.54,30.504 L239.776,44 L237.564,44 L240.532,24.4 L241.624,24.4 C242.464,24.4 242.604,24.932 242.688,25.464 L245.516,44 Z M260.804,44 L258.788,44 L258.788,36.832 C258.788,35.88 258.284,35.572 257.752,35.572 L256.688,35.572 L256.688,44 L254.672,44 L254.672,24.4 L258.34,24.4 C259.684,24.4 260.804,25.492 260.804,26.864 L260.804,32.912 C260.804,32.912 260.888,34.452 260.076,34.648 C260.86,35.04 260.804,36.496 260.804,36.496 L260.804,44 Z M256.688,33.668 L257.752,33.668 C258.284,33.668 258.788,33.444 258.788,32.548 L258.788,27.284 C258.788,26.556 258.284,26.276 257.752,26.276 L256.688,26.276 L256.688,33.668 Z M271.388,24.4 L275.28,24.4 C276.652,24.4 277.744,25.492 277.772,26.864 L277.772,41.536 C277.744,42.908 276.652,44 275.28,44 L271.388,44 L271.388,24.4 Z M275.784,40.976 L275.784,27.424 C275.784,26.696 275.28,26.416 274.72,26.416 L273.404,26.416 L273.404,42.012 L274.72,42.012 C275.28,42.012 275.784,41.732 275.784,40.976 Z M307.452,24.204 L308.992,24.204 C310.336,24.26 311.428,25.352 311.428,26.696 L311.428,41.732 C311.4,43.076 310.336,44.14 308.992,44.196 L307.452,44.196 C306.08,44.196 304.96,43.076 304.932,41.732 L304.932,26.696 C304.932,25.324 306.052,24.204 307.452,24.204 Z M308.012,42.432 L308.32,42.432 C308.908,42.432 309.384,41.956 309.384,41.34 L309.384,27.06 C309.384,26.444 308.908,25.968 308.32,25.968 L308.012,25.968 C307.424,25.996 306.948,26.472 306.948,27.06 L306.948,41.34 C306.948,41.928 307.424,42.404 308.012,42.432 Z M322.572,24.4 L323.776,24.4 C324.364,24.4 324.588,24.848 324.588,25.184 L324.588,44 L323.16,44 C322.684,44 322.6,43.72 322.572,43.58 L322.572,24.4 Z M338.504,42.012 L343.04,42.012 C342.816,42.516 342.48,43.3 342.396,43.468 C342.256,43.72 341.948,44 341.304,44 L336.488,44 L336.488,24.4 L337.888,24.4 C338.224,24.428 338.504,24.68 338.504,25.016 L338.504,42.012 Z" id="Pearls-Beard-OIL" fill="#F5A623"></path>
                        <path d="M52.7614779,13.110581 C50.1224885,5.07600255 52.2334412,0 52.2334412,0 L52.0221072,0 C52.0221072,0 50.0168215,4.07832598 48.8559766,10.7997969 C47.6951317,17.5212678 44.6603388,18.5192414 44.6603388,18.5192414 C44.6603388,18.5192414 46.4545888,20.0159047 47.9852683,20.0159047 C49.5159478,20.0159047 49.8765291,18.1693566 49.8765291,18.1693566 C50.9275281,20.6592413 48.3807735,21.1974342 48.3807735,21.1974342 C45.1352434,21.1974342 39.8841292,17.1541561 39.8841292,17.1541561 C33.7094732,12.9528655 31.4050961,13.4782867 31.4050961,13.4782867 C29.3290672,13.4782867 27.5001918,15.290084 27.5001918,15.290084 C27.5001918,15.290084 25.6710178,13.4782867 23.5952875,13.4782867 C23.5952875,13.4782867 21.2903134,12.9531625 15.1159559,17.1541561 C15.1159559,17.1541561 9.86484166,21.1974342 6.6193116,21.1974342 C6.6193116,21.1974342 4.07285551,20.6592413 5.12385444,18.1693566 C5.12385444,18.1693566 5.48443573,20.0159047 7.01511523,20.0159047 C8.54549623,20.0159047 10.3397463,18.5192414 10.3397463,18.5192414 C10.3397463,18.5192414 7.30525182,17.5215648 6.14410845,10.7997969 C4.98296507,4.07832598 2.97767941,4.22085048e-15 2.97767941,4.22085048e-15 L2.76634534,4.22085048e-15 C2.76634534,4.22085048e-15 4.87729803,5.07600255 2.23860717,13.110581 C-0.400083698,21.1448623 -0.188451139,24.3662973 0.303766196,27.7968315 C0.303766196,27.7968315 0.272125785,24.6460863 1.78310465,23.5257422 C1.78310465,23.5257422 -1.96747801,38.3694112 3.56571346,44.6706045 C3.56571346,44.6706045 2.83470057,40.8898885 3.56571346,38.999382 C3.56571346,38.999382 2.97738091,48.2416273 16.2765023,55.1035867 C16.2765023,55.1035867 14.2709181,50.8672482 14.4294187,48.1367806 C14.4294187,48.1367806 16.3466485,54.6138074 19.5835222,56.3638254 C22.8203959,58.1138433 26.1626382,59.969302 27.4998933,62 C28.8368499,59.969302 32.1787937,58.1141404 35.4156674,56.3638254 C38.6531381,54.6135104 40.5700694,48.1367806 40.5700694,48.1367806 C40.72857,50.8672482 38.7229858,55.1035867 38.7229858,55.1035867 C52.0218087,48.2416273 51.4334761,38.999382 51.4334761,38.999382 C52.164489,40.8898885 51.4334761,44.6706045 51.4334761,44.6706045 C56.9669661,38.3694112 53.2163834,23.5257422 53.2163834,23.5257422 C54.7276608,24.6460863 54.6960204,27.7968315 54.6960204,27.7968315 C55.1885362,24.3662973 55.4001688,21.1448623 52.7614779,13.110581 Z M18.5465525,22.6676631 C18.5465525,22.6676631 23.5773778,22.3525292 27.5004903,20.0420421 C27.5004903,20.0420421 30.7901975,22.2473855 36.4896504,22.6676631 C36.4896504,22.6676631 26.5154586,25.9761238 18.5465525,22.6676631 Z" id="Shape" fill="#4A4A4A" fill-rule="nonzero"></path>
                    </g>
                    <g id="Beard-1"></g>
                </g>
            </g>
        </g>
    </g>
</svg>
